icons/hexagon-plus.svg

<svg xmlns="http://www.w3.org/2000/svg" width="24" height="24" viewBox="0 0 24 24">
  <path d="M16.3173342,1 C17.0224657,1 17.6754933,1.37131518 18.0360686,1.97728201 L23.3914405,10.977282 C23.7664613,11.6075253 23.7664613,12.3924747 23.3914405,13.022718 L18.0360686,22.022718 C17.6754933,22.6286848 17.0224657,23 16.3173342,23 L7.68266576,23 C6.97753431,23 6.32450667,22.6286848 5.96393136,22.022718 L0.608559463,13.022718 C0.233538656,12.3924747 0.233538656,11.6075253 0.608559463,10.977282 L5.96393136,1.97728201 C6.32450667,1.37131518 6.97753431,1 7.68266576,1 L16.3173342,1 Z M12,7 C11.4477153,7 11,7.44771525 11,8 L11,8 L10.999,11 L8,11 L7.88337887,11.0067277 C7.38604019,11.0644928 7,11.4871642 7,12 C7,12.5522847 7.44771525,13 8,13 L8,13 L10.999,13 L11,16 L11.0067277,16.1166211 C11.0644928,16.6139598 11.4871642,17 12,17 C12.5522847,17 13,16.5522847 13,16 L13,16 L12.999,13 L16,13 L16.1166211,12.9932723 C16.6139598,12.9355072 17,12.5128358 17,12 C17,11.4477153 16.5522847,11 16,11 L16,11 L12.999,11 L13,8 L12.9932723,7.88337887 C12.9355072,7.38604019 12.5128358,7 12,7 Z"/>
</svg>

<svg xmlns="http://www.w3.org/2000/svg" viewBox="0 0 24 24">
  <path d="M16.32 1a2 2 0 0 1 1.72.98l5.35 9a2 2 0 0 1 0 2.04l-5.35 9a2 2 0 0 1-1.72.98H7.68a2 2 0 0 1-1.72-.98l-5.35-9a2 2 0 0 1 0-2.04l5.35-9A2 2 0 0 1 7.68 1h8.64zM12 7a1 1 0 0 0-1 1v3H7.88A1 1 0 0 0 8 13h3v3.12a1 1 0 0 0 2-.12v-3h3.12a1 1 0 0 0-.12-2h-3V7.88A1 1 0 0 0 12 7z"/>
</svg>
